X: 341
T: Sirba from Yedinetz
R: sirba
Q: 1/4=144
B: German Goldenshteyn "Shpilt klezmorimlach klingen zoln di gesalach" New York 2003 v.3 #41
Z: 2013 John Chambers <jc:trillian.mit.edu>
M: 2/4
L: 1/8
K: Em
B |:\
e2 (3(gf)e | ^d>e B2 | (3(=dc)B (TA>G) | A>B G2 |\
(3(DE)F (3(GA)B | (3(dc)B (TA>G) | G>F (3(AG)F |[1 E>G B>B :|[2 E2 zB ||
|: e4- | e(B gf) | e4- | e(B gf) |\
e(B gf) | e^d ec | B4- | B(FG^G) |
A4- | A^G A>B | G4- | G>F G>A |\
F2 A2 | (3(GF)E (3(^DE)F |[1 E4- | E3 B :|[2 E4- | E2 z |]
